tools/download-figma-icons/icons/solid/water-tap.svg

<svg width="24" height="24" viewBox="0 0 24 24" fill="none" xmlns="http://www.w3.org/2000/svg">
<path fill-rule="evenodd" clip-rule="evenodd" d="M23.2495 12.7497V13.5777C23.6868 13.7427 23.9995 14.162 23.9995 14.6562V16.0932C23.9995 16.7314 23.4813 17.2496 22.843 17.2496H16.1562C15.5179 17.2496 14.9997 16.7314 14.9997 16.0932V14.6562C14.9997 14.162 15.3124 13.7427 15.7497 13.5777V13.4997C15.7497 13.0865 15.4137 12.7497 14.9997 12.7497H11.9998V13.1247C11.9998 13.7457 11.495 14.2497 10.8748 14.2497H7.12486C6.50462 14.2497 5.99988 13.7457 5.99988 13.1247V12.7497H3.71917C3.57293 13.5995 2.83494 14.2497 1.94471 14.2497H0.749985C0.335243 14.2497 0 13.9145 0 13.4997V5.24989C0 4.8359 0.335243 4.49991 0.749985 4.49991H1.94471C2.83494 4.49991 3.57293 5.1509 3.71917 5.99988H6.06888C6.22412 5.56414 6.63662 5.24989 7.12486 5.24989H8.18683V2.99994H5.99988C5.17264 2.99994 4.49991 2.3272 4.49991 1.49997C4.49991 0.673486 5.17264 0 5.99988 0H11.9998C12.827 0 13.4997 0.673486 13.4997 1.49997C13.4997 2.3272 12.827 2.99994 11.9998 2.99994H9.6868V5.24989H10.8748C11.363 5.24989 11.7755 5.56414 11.9308 5.99988H16.4997C20.1588 5.99988 23.2495 9.09132 23.2495 12.7497ZM17.2496 21.5804C17.2496 20.4832 18.5201 18.7815 18.91 18.2865C19.1943 17.925 19.8048 17.925 20.089 18.2865C20.479 18.7815 21.7495 20.4832 21.7495 21.5804C21.7495 22.9146 20.74 23.9999 19.4995 23.9999C18.2591 23.9999 17.2496 22.9146 17.2496 21.5804Z" fill="black"/>
</svg>

<svg width="24" height="24" viewBox="0 0 24 24" fill="none" xmlns="http://www.w3.org/2000/svg"><path fill-rule="evenodd" clip-rule="evenodd" d="M23.25 12.75v.828c.437.165.75.584.75 1.078v1.437c0 .638-.519 1.157-1.157 1.157h-6.687A1.157 1.157 0 0 1 15 16.093v-1.437c0-.494.312-.913.75-1.078V13.5a.75.75 0 0 0-.75-.75h-3v.375c0 .62-.505 1.125-1.125 1.125h-3.75c-.62 0-1.125-.504-1.125-1.125v-.375H3.72c-.147.85-.885 1.5-1.775 1.5H.75A.75.75 0 0 1 0 13.5V5.25a.75.75 0 0 1 .75-.75h1.195c.89 0 1.628.65 1.774 1.5h2.35c.155-.436.568-.75 1.056-.75h1.062V3H6c-.827 0-1.5-.673-1.5-1.5S5.173 0 6 0h6c.827 0 1.5.673 1.5 1.5S12.827 3 12 3H9.687v2.25h1.188c.488 0 .9.314 1.056.75H16.5c3.659 0 6.75 3.091 6.75 6.75Zm-6 8.83c0-1.097 1.27-2.798 1.66-3.293.284-.362.895-.362 1.179 0 .39.495 1.66 2.196 1.66 3.293 0 1.335-1.009 2.42-2.25 2.42-1.24 0-2.25-1.085-2.25-2.42Z" fill="currentColor"/></svg>
